images/Football Pitch Image.svg

<?xml version="1.0" encoding="UTF-8" standalone="no"?>
<svg
   width="740"
   height="1110"
   viewBox="0 0 74 111"
   version="1.1"
   id="svg1"
   sodipodi:docname="Football Pitch Image.svg"
   inkscape:version="1.4.2 (ebf0e940, 2025-05-08)"
   xmlns:inkscape="http://www.inkscape.org/namespaces/inkscape"
   xmlns:sodipodi="http://sodipodi.sourceforge.net/DTD/sodipodi-0.dtd"
   xmlns:xlink="http://www.w3.org/1999/xlink"
   xmlns="http://www.w3.org/2000/svg"
   xmlns:svg="http://www.w3.org/2000/svg">
  <defs
     id="defs1">
    <clipPath
       clipPathUnits="userSpaceOnUse"
       id="clipPath1">
      <rect
         style="fill:#ff2a2a;stroke-width:0.1"
         id="rect2"
         width="78.713943"
         height="58.435097"
         x="-5.6682692"
         y="50.899036" />
    </clipPath>
    <clipPath
       clipPathUnits="userSpaceOnUse"
       id="clipPath2">
      <rect
         style="fill:#ff2a2a;stroke-width:0.1"
         id="rect3"
         width="78.713943"
         height="58.435097"
         x="-2.6682692"
         y="53.899036" />
    </clipPath>
  </defs>
  <sodipodi:namedview
     id="namedview1"
     pagecolor="#ffffff"
     bordercolor="#000000"
     borderopacity="0.25"
     inkscape:showpageshadow="2"
     inkscape:pageopacity="0.0"
     inkscape:pagecheckerboard="0"
     inkscape:deskcolor="#d1d1d1"
     inkscape:zoom="0.37477477"
     inkscape:cx="353.54567"
     inkscape:cy="497.63221"
     inkscape:window-width="1384"
     inkscape:window-height="802"
     inkscape:window-x="224"
     inkscape:window-y="25"
     inkscape:window-maximized="0"
     inkscape:current-layer="svg1" />
  <rect
     id=""
     width="74"
     height="111"
     fill="#00a000"
     clip-path="url(#clipPath2)" />
  <g
     fill="none"
     stroke="#fff"
     stroke-width="0.5"
     transform="translate(3 3)"
     id="g1"
     clip-path="url(#clipPath1)">
    <path
       id="Border"
       d="M 0 0 h 68 v 105 h -68 Z" />
    <path
       id="Centre line"
       d="M 0 52.5 h 68" />
    <circle
       id="Centre circle"
       r="9.15"
       cx="34"
       cy="52.5" />
    <circle
       id="Centre mark"
       r="0.75"
       cx="34"
       cy="52.5"
       fill="#fff"
       stroke="none" />
    <g
       id="Penalty area">
      <path
         id="Penalty area line"
         d="M 13.84 0 v 16.5 h 40.32 v -16.5" />
      <path
         id="Goal area line"
         d="M 24.84 0 v 5.5 h 18.32 v -5.5" />
      <circle
         id="Penalty mark"
         r="0.75"
         cx="34"
         cy="10.94"
         fill="#fff"
         stroke="none" />
      <path
         id="Penalty arc"
         d="M 26.733027 16.5 a 9.15 9.15 0 0 0 14.533946 0" />
    </g>
    <use
       xlink:href="#Penalty area"
       transform="rotate(180,34,52.5)"
       id="use1" />
    <path
       id="Corner arcs"
       d="M 0 2 a 2 2 0 0 0 2 -2M 66 0 a 2 2 0 0 0 2 2M 68 103 a 2 2 0 0 0 -2 2M 2 105 a 2 2 0 0 0 -2 -2" />
  </g>
</svg>

<?xml version="1.0" encoding="UTF-8" standalone="no"?>
<svg
   width="740"
   height="571.00964"
   viewBox="0 0 74 57.100964"
   version="1.1"
   id="svg1"
   sodipodi:docname="Football Pitch Image.svg"
   inkscape:version="1.4.2 (ebf0e940, 2025-05-08)"
   xmlns:inkscape="http://www.inkscape.org/namespaces/inkscape"
   xmlns:sodipodi="http://sodipodi.sourceforge.net/DTD/sodipodi-0.dtd"
   xmlns:xlink="http://www.w3.org/1999/xlink"
   xmlns="http://www.w3.org/2000/svg"
   xmlns:svg="http://www.w3.org/2000/svg">
  <defs
     id="defs1">
    <clipPath
       clipPathUnits="userSpaceOnUse"
       id="clipPath1">
      <rect
         style="fill:#ff2a2a;stroke-width:0.1"
         id="rect2"
         width="78.713943"
         height="58.435097"
         x="-5.6682692"
         y="50.899036" />
    </clipPath>
    <clipPath
       clipPathUnits="userSpaceOnUse"
       id="clipPath2">
      <rect
         style="fill:#ff2a2a;stroke-width:0.1"
         id="rect3"
         width="78.713943"
         height="58.435097"
         x="-2.6682692"
         y="53.899036" />
    </clipPath>
  </defs>
  <sodipodi:namedview
     id="namedview1"
     pagecolor="#ffffff"
     bordercolor="#000000"
     borderopacity="0.25"
     inkscape:showpageshadow="2"
     inkscape:pageopacity="0.0"
     inkscape:pagecheckerboard="0"
     inkscape:deskcolor="#d1d1d1"
     inkscape:zoom="0.37477477"
     inkscape:cx="353.54567"
     inkscape:cy="-41.358173"
     inkscape:window-width="1384"
     inkscape:window-height="802"
     inkscape:window-x="224"
     inkscape:window-y="25"
     inkscape:window-maximized="0"
     inkscape:current-layer="svg1" />
  <rect
     id=""
     width="74"
     height="111"
     fill="#00a000"
     clip-path="url(#clipPath2)"
     x="0"
     y="0"
     transform="translate(0,-53.899036)" />
  <g
     fill="none"
     stroke="#ffffff"
     stroke-width="0.5"
     transform="translate(3,-50.899036)"
     id="g1"
     clip-path="url(#clipPath1)">
    <path
       id="Border"
       d="M 0,0 H 68 V 105 H 0 Z" />
    <path
       id="Centre line"
       d="M 0,52.5 H 68" />
    <circle
       id="Centre circle"
       r="9.1499996"
       cx="34"
       cy="52.5" />
    <circle
       id="Centre mark"
       r="0.75"
       cx="34"
       cy="52.5"
       fill="#ffffff"
       stroke="none" />
    <g
       id="Penalty area">
      <path
         id="Penalty area line"
         d="M 13.84,0 V 16.5 H 54.16 V 0" />
      <path
         id="Goal area line"
         d="M 24.84,0 V 5.5 H 43.16 V 0" />
      <circle
         id="Penalty mark"
         r="0.75"
         cx="34"
         cy="10.94"
         fill="#ffffff"
         stroke="none" />
      <path
         id="Penalty arc"
         d="m 26.733027,16.5 a 9.15,9.15 0 0 0 14.533946,0" />
    </g>
    <use
       xlink:href="#Penalty%20area"
       transform="rotate(180,34,52.5)"
       id="use1" />
    <path
       id="Corner arcs"
       d="M 0,2 A 2,2 0 0 0 2,0 m 64,0 a 2,2 0 0 0 2,2 m 0,101 a 2,2 0 0 0 -2,2 m -64,0 a 2,2 0 0 0 -2,-2" />
  </g>
</svg>
